!! 00000] TT[00
!! NN
!!!OTL: Dui Hua
!!!ARE: Asia, China,ÿGuangdong, Zhongshan
!! Ethnic Group: Han
!! II, 414
!!!SCT: C0252
!!!YEM: Copyright 1995, estate of Helmut Schaffrath.
**kern
*ICvox
*Ivox
!! Mixed meters:  2/4; 3/4
*M3/4
*k[b-e-]
*B-:
{4ff
8ccc
16ddd
16fff
16ddd
16ccc
8ddd
=1
*M2/4
8ccc
8bb-
4ccc
=2
8ccc
16ddd
16fff
16ddd
16ccc
16aa
16gg}
=3
*M3/4
{8ff
8ccc
8ff
16ddd
16fff
16ddd
16ccc
8ddd
=4
*M2/4
8bb-
8ccc
8ff
8ff
=5
*M3/4
4.bb-
16gg
16ff
8dd
8r}
=6
{4ff
8ccc
16ddd
16fff
16ddd
16ccc
8ddd
=7
4ccc
8ccc
16ddd
16fff
16ddd
16ccc
16aa
16gg}
=8
*M2/4
{4ff
16bb-
16ccc
8ddd
=9
*M3/4
4bb-
8ccc
8bb-
8aa
8gg
=10
*M2/4
8ff
16ff
16dd
4ff
=11
8dd
4.r}
=12
*M3/4
{4ff
8ccc
16ddd
16fff
16ddd
16ccc
8ddd
=13
*M2/4
8ff
8bb-
4ccc
=14
8ccc
16ddd
16fff
16ddd
16ccc
16aa
16gg}
=15
*M3/4
{8ff
8ccc
8ff
16ddd
16fff
16ddd
16ccc
8ddd
=16
*M2/4
8bb-
8ccc
8ff
8ff
=17
*M3/4
4.bb-
16gg
16ff
8dd
8r
=18
*M2/4
2r}
=19
*M3/4
{4ff
8ccc
16ddd
16fff
16ddd
16ccc
8ddd
=20
4ccc
8ccc
16ddd
16fff
16ddd
16ccc
16aa
16gg}
=21
*M2/4
{4ff
16bb-
16ccc
8ddd
=22
*M3/4
4bb-
8ccc
8bb-
8aa
8gg
=23
*M2/4
8ff
16ff
16dd
4ff
=24
8dd
4.r}
==
!!!AGN: Xiaodiao, Xianshuige. Chang huahui
!! +++ auch Nr. 51 absuchen +++
!!    Diese Sammlung enthaelt mit Stand 1987 wenigstens 32 Aufnahmen
!!    mit dem Titel "Dui hua"
!!    C0046, C0495, C0136
!!    Vereinzelt Glissandi und Verzierungen.
!!!ONB: ESAC (Essen Associative Code) Database: CHINA
!!!AMT: irregular
!!!AIN: vox
!!!EED: Helmut Schaffrath
!!!EEV: 1.0
*-
